app/img/_src/main/howwework/work-2.svg

<svg width="63" height="60" viewBox="0 0 63 60" fill="none" xmlns="http://www.w3.org/2000/svg">
<path d="M52.7388 19.707C52.7382 19.707 52.7374 19.707 52.7367 19.707H0.888676C0.398453 19.7065 0.000518988 20.1034 5.07404e-07 20.5936C5.07404e-07 20.5943 5.07404e-07 20.5951 5.07404e-07 20.5957V45.4828C-0.000517973 45.973 0.396379 46.3709 0.886602 46.3714C0.88725 46.3714 0.888028 46.3714 0.888676 46.3714H36.1453C36.6361 46.3714 37.034 45.9735 37.034 45.4828C37.034 44.992 36.6361 44.5941 36.1453 44.5941H1.77735V21.4844H51.848V23.7066C51.8475 24.1968 52.2444 24.5947 52.7346 24.5953C52.7353 24.5953 52.7361 24.5953 52.7367 24.5953C53.2269 24.5958 53.6249 24.1989 53.6254 23.7087C53.6254 23.708 53.6254 23.7072 53.6254 23.7066V20.5957C53.6259 20.1055 53.229 19.7077 52.7388 19.707Z" fill="url(#paint0_linear)"/>
<path d="M46.7099 15.5807L5.23148 6.24807C5.00128 6.19661 4.76005 6.23835 4.56057 6.36421C4.36134 6.49111 4.22044 6.69163 4.1686 6.92209L2.09467 16.2547C1.98813 16.7341 2.2904 17.209 2.76973 17.3156C3.24907 17.4221 3.724 17.1198 3.83055 16.6405L5.71056 8.17785L46.32 17.3145C46.3843 17.3294 46.45 17.3368 46.516 17.3363C47.0067 17.3354 47.4039 16.9368 47.4031 16.4461C47.4023 16.0311 47.1146 15.6721 46.7099 15.5807Z" fill="url(#paint1_linear)"/>
<path d="M41.6734 10.4384L16.7863 0.0688201C16.3538 -0.111481 15.8554 0.0737457 15.6456 0.492937L13.5717 4.64078C13.3375 5.07397 13.4987 5.61514 13.9321 5.84936C14.3653 6.08358 14.9064 5.92233 15.1406 5.48901C15.1498 5.47203 15.1585 5.45467 15.1666 5.43704V5.43911L16.8682 2.03373L40.9869 12.0829C41.4411 12.2724 41.9629 12.058 42.1524 11.6038C42.3419 11.1499 42.1276 10.6281 41.6734 10.4384Z" fill="url(#paint2_linear)"/>
<path d="M42.3018 23.8545H34.0714C33.5807 23.8545 33.1827 24.2524 33.1827 24.7432C33.1827 25.2339 33.5807 25.6318 34.0714 25.6318H42.3018C42.7925 25.6318 43.1905 25.2339 43.1905 24.7432C43.1905 24.2524 42.7925 23.8545 42.3018 23.8545Z" fill="url(#paint3_linear)"/>
<path d="M25.7758 23.9136C20.736 23.9136 16.6505 27.9991 16.6505 33.0388C16.6557 38.0764 20.7382 42.1589 25.7758 42.1641C30.8155 42.1641 34.901 38.0786 34.901 33.0388C34.901 27.9991 30.8155 23.9136 25.7758 23.9136ZM25.7758 40.5049C21.6523 40.5049 18.3097 37.1623 18.3097 33.0388C18.3142 28.9173 21.6542 25.5772 25.7758 25.5727C29.8992 25.5727 33.2419 28.9154 33.2419 33.0388C33.2419 37.1623 29.8992 40.5049 25.7758 40.5049Z" fill="url(#paint4_linear)"/>
<path d="M50.6628 26.8174C45.1669 26.8174 39.2562 28.1157 39.2562 30.9652V55.8523C39.2562 58.7019 45.1669 60.0001 50.6628 60.0001C56.1587 60.0001 62.0694 58.7019 62.0694 55.8523V30.9652C62.0694 28.1157 56.1587 26.8174 50.6628 26.8174ZM59.9954 55.8367C59.8389 56.4122 56.729 57.9262 50.6628 57.9262C44.5966 57.9262 41.4867 56.4122 41.3301 55.8523V54.2222C43.5368 55.3338 47.1817 55.8523 50.6628 55.8523C54.1439 55.8523 57.7898 55.3286 59.9954 54.2211V55.8367ZM59.9954 51.6889C59.8389 52.2644 56.729 53.7784 50.6628 53.7784C44.5966 53.7784 41.4867 52.2644 41.3301 51.7044V50.0743C43.5368 51.186 47.1817 51.7044 50.6628 51.7044C54.1439 51.7044 57.7898 51.1808 59.9954 50.0733V51.6889ZM59.9954 47.541C59.8389 48.1166 56.729 49.6305 50.6628 49.6305C44.5966 49.6305 41.4867 48.1166 41.3301 47.5566V45.9265C43.5368 47.0381 47.1817 47.5566 50.6628 47.5566C54.1439 47.5566 57.7898 47.0329 59.9954 45.9255V47.541ZM59.9954 43.3932C59.8389 43.9687 56.729 45.4827 50.6628 45.4827C44.5966 45.4827 41.4867 43.9687 41.3301 43.4088V41.7787C43.5368 42.8903 47.1817 43.4088 50.6628 43.4088C54.1439 43.4088 57.7898 42.8851 59.9954 41.7776V43.3932ZM59.9954 39.2454C59.8389 39.8209 56.729 41.3348 50.6628 41.3348C44.5966 41.3348 41.4867 39.8209 41.3301 39.2609V37.6308C43.5368 38.7372 47.1817 39.2609 50.6628 39.2609C54.1439 39.2609 57.7898 38.7372 59.9954 37.6298V39.2454ZM59.9954 35.0975C59.8389 35.673 56.729 37.187 50.6628 37.187C44.5966 37.187 41.4867 35.673 41.3301 35.1131V33.483C43.5368 34.5894 47.1817 35.1131 50.6628 35.1131C54.1439 35.1131 57.7898 34.5894 59.9954 33.4819V35.0975ZM50.6628 33.0391C44.6059 33.0391 41.4971 31.5293 41.3301 30.9839V30.9777C41.4971 30.4001 44.6059 28.8913 50.6628 28.8913C56.6772 28.8913 59.7881 30.3783 59.9954 30.9652C59.7881 31.5521 56.6772 33.0391 50.6628 33.0391Z" fill="url(#paint5_linear)"/>
<path d="M17.48 40.4448H9.64165L5.92518 36.3799V29.6397L10.0295 25.6318H17.48C17.9708 25.6318 18.3687 25.2339 18.3687 24.7432C18.3687 24.2524 17.9708 23.8545 17.48 23.8545H9.66861C9.43633 23.854 9.21299 23.9445 9.04643 24.1065L4.41433 28.6245C4.24128 28.8267 4.1464 29.0843 4.14679 29.3504V36.7253C4.14679 36.947 4.22962 37.1608 4.37907 37.3246L8.59224 41.9329C8.76062 42.1172 8.99886 42.2223 9.24864 42.2222H17.48C17.9708 42.2222 18.3687 41.8242 18.3687 41.3335C18.3687 40.8428 17.9709 40.4448 17.48 40.4448Z" fill="url(#paint6_linear)"/>
<path d="M26.2942 32.0019H25.2573C24.9348 32.0019 24.7388 31.8215 24.7388 31.7427C24.7388 31.6639 24.9348 31.4834 25.2573 31.4834H27.8497C28.4223 31.4834 28.8866 31.0191 28.8866 30.4465C28.8866 29.8738 28.4223 29.4095 27.8497 29.4095H26.8127C26.8127 28.8369 26.3484 28.3726 25.7757 28.3726C25.2031 28.3726 24.7388 28.8369 24.7388 29.4095V29.4562C23.5887 29.6186 22.7174 30.5771 22.6649 31.7375C22.7391 33.0971 23.8972 34.1417 25.2573 34.0758H26.2942C26.6167 34.0758 26.8127 34.2563 26.8127 34.3351C26.8127 34.4139 26.6167 34.5943 26.2942 34.5943H23.7018C23.1292 34.5943 22.6649 35.0586 22.6649 35.6313C22.6649 36.2039 23.1292 36.6682 23.7018 36.6682H24.7388C24.7388 37.2409 25.2031 37.7052 25.7757 37.7052C26.3484 37.7052 26.8127 37.2409 26.8127 36.6682V36.6216C27.9628 36.4592 28.8341 35.5006 28.8866 34.3403C28.8123 32.9807 27.6543 31.9361 26.2942 32.0019Z" fill="url(#paint7_linear)"/>
<defs>
<linearGradient id="paint0_linear" x1="26.8127" y1="19.707" x2="26.8127" y2="46.3714" gradientUnits="userSpaceOnUse">
<stop stop-color="#8888D3"/>
<stop offset="1" stop-color="#5E60A3"/>
</linearGradient>
<linearGradient id="paint1_linear" x1="24.7382" y1="6.22656" x2="24.7382" y2="17.3369" gradientUnits="userSpaceOnUse">
<stop stop-color="#8888D3"/>
<stop offset="1" stop-color="#5E60A3"/>
</linearGradient>
<linearGradient id="paint2_linear" x1="27.8428" y1="0" x2="27.8428" y2="12.1519" gradientUnits="userSpaceOnUse">
<stop stop-color="#8888D3"/>
<stop offset="1" stop-color="#5E60A3"/>
</linearGradient>
<linearGradient id="paint3_linear" x1="38.1866" y1="23.8545" x2="38.1866" y2="25.6318" gradientUnits="userSpaceOnUse">
<stop stop-color="#8888D3"/>
<stop offset="1" stop-color="#5E60A3"/>
</linearGradient>
<linearGradient id="paint4_linear" x1="25.7758" y1="23.9136" x2="25.7758" y2="42.1641" gradientUnits="userSpaceOnUse">
<stop stop-color="#8888D3"/>
<stop offset="1" stop-color="#5E60A3"/>
</linearGradient>
<linearGradient id="paint5_linear" x1="50.6628" y1="26.8174" x2="50.6628" y2="60.0001" gradientUnits="userSpaceOnUse">
<stop stop-color="#8888D3"/>
<stop offset="1" stop-color="#5E60A3"/>
</linearGradient>
<linearGradient id="paint6_linear" x1="11.2578" y1="23.8545" x2="11.2578" y2="42.2222" gradientUnits="userSpaceOnUse">
<stop stop-color="#8888D3"/>
<stop offset="1" stop-color="#5E60A3"/>
</linearGradient>
<linearGradient id="paint7_linear" x1="25.7757" y1="28.3726" x2="25.7757" y2="37.7052" gradientUnits="userSpaceOnUse">
<stop stop-color="#8888D3"/>
<stop offset="1" stop-color="#5E60A3"/>
</linearGradient>
</defs>
</svg>

<svg width="63" height="60" fill="none" xmlns="http://www.w3.org/2000/svg"><path d="M52.739 19.707H.889a.888.888 0 00-.889.887v24.889c0 .49.396.888.887.888h35.258a.889.889 0 100-1.777H1.777v-23.11h50.071v2.223c0 .49.396.888.887.888h.002c.49 0 .888-.396.888-.886v-3.113a.888.888 0 00-.886-.889z" fill="url(#paint0_linear)"/><path d="M46.71 15.58L5.23 6.249a.892.892 0 00-1.062.674l-2.074 9.333a.89.89 0 001.736.386l1.88-8.463 40.609 9.136a.889.889 0 00.39-1.734z" fill="url(#paint1_linear)"/><path d="M41.673 10.438L16.786.068a.892.892 0 00-1.14.425L13.572 4.64a.892.892 0 101.595.796v.002l1.701-3.405 24.119 10.049a.891.891 0 00.686-1.645z" fill="url(#paint2_linear)"/><path d="M42.302 23.855h-8.23a.889.889 0 000 1.777h8.23a.889.889 0 000-1.777z" fill="url(#paint3_linear)"/><path d="M25.776 23.914a9.125 9.125 0 00-9.125 9.125 9.135 9.135 0 009.125 9.125 9.125 9.125 0 000-18.25zm0 16.59a7.466 7.466 0 01-7.466-7.465 7.474 7.474 0 017.466-7.466 7.466 7.466 0 010 14.932z" fill="url(#paint4_linear)"/><path d="M50.663 26.817c-5.496 0-11.407 1.299-11.407 4.148v24.887c0 2.85 5.91 4.148 11.407 4.148 5.496 0 11.406-1.298 11.406-4.148V30.965c0-2.85-5.91-4.148-11.406-4.148zm9.332 29.02c-.156.575-3.266 2.09-9.332 2.09-6.066 0-9.176-1.515-9.333-2.075v-1.63c2.207 1.112 5.852 1.63 9.333 1.63 3.48 0 7.127-.523 9.332-1.63v1.615zm0-4.148c-.156.575-3.266 2.09-9.332 2.09-6.066 0-9.176-1.515-9.333-2.075v-1.63c2.207 1.112 5.852 1.63 9.333 1.63 3.48 0 7.127-.523 9.332-1.63v1.615zm0-4.148c-.156.576-3.266 2.09-9.332 2.09-6.066 0-9.176-1.514-9.333-2.074v-1.63c2.207 1.111 5.852 1.63 9.333 1.63 3.48 0 7.127-.524 9.332-1.632v1.616zm0-4.148c-.156.576-3.266 2.09-9.332 2.09-6.066 0-9.176-1.514-9.333-2.074v-1.63c2.207 1.111 5.852 1.63 9.333 1.63 3.48 0 7.127-.524 9.332-1.631v1.615zm0-4.148c-.156.576-3.266 2.09-9.332 2.09-6.066 0-9.176-1.514-9.333-2.074v-1.63c2.207 1.106 5.852 1.63 9.333 1.63 3.48 0 7.127-.524 9.332-1.631v1.615zm0-4.148c-.156.576-3.266 2.09-9.332 2.09-6.066 0-9.176-1.514-9.333-2.074v-1.63c2.207 1.106 5.852 1.63 9.333 1.63 3.48 0 7.127-.524 9.332-1.631v1.615zm-9.332-2.058c-6.057 0-9.166-1.51-9.333-2.055v-.006c.167-.578 3.276-2.087 9.333-2.087 6.014 0 9.125 1.487 9.332 2.074-.207.587-3.318 2.074-9.332 2.074z" fill="url(#paint5_linear)"/><path d="M17.48 40.445H9.642L5.925 36.38v-6.74l4.105-4.008h7.45a.889.889 0 100-1.777H9.669a.89.89 0 00-.623.252l-4.632 4.518a1.11 1.11 0 00-.267.725v7.375a.89.89 0 00.232.6l4.213 4.608c.169.184.407.29.657.29h8.231a.889.889 0 000-1.778z" fill="url(#paint6_linear)"/><path d="M26.294 32.002h-1.037c-.322 0-.518-.18-.518-.26 0-.078.196-.259.518-.259h2.593a1.037 1.037 0 000-2.073h-1.037a1.037 1.037 0 00-2.074 0v.046a2.414 2.414 0 00-2.074 2.282 2.476 2.476 0 002.592 2.338h1.037c.323 0 .519.18.519.26 0 .078-.196.258-.519.258h-2.592a1.037 1.037 0 000 2.074h1.037a1.037 1.037 0 002.074 0v-.046a2.414 2.414 0 002.074-2.282 2.476 2.476 0 00-2.593-2.338z" fill="url(#paint7_linear)"/><defs><linearGradient id="paint0_linear" x1="26.813" y1="19.707" x2="26.813" y2="46.371" gradientUnits="userSpaceOnUse"><stop stop-color="#8888D3"/><stop offset="1" stop-color="#5E60A3"/></linearGradient><linearGradient id="paint1_linear" x1="24.738" y1="6.227" x2="24.738" y2="17.337" gradientUnits="userSpaceOnUse"><stop stop-color="#8888D3"/><stop offset="1" stop-color="#5E60A3"/></linearGradient><linearGradient id="paint2_linear" x1="27.843" y1="0" x2="27.843" y2="12.152" gradientUnits="userSpaceOnUse"><stop stop-color="#8888D3"/><stop offset="1" stop-color="#5E60A3"/></linearGradient><linearGradient id="paint3_linear" x1="38.187" y1="23.855" x2="38.187" y2="25.632" gradientUnits="userSpaceOnUse"><stop stop-color="#8888D3"/><stop offset="1" stop-color="#5E60A3"/></linearGradient><linearGradient id="paint4_linear" x1="25.776" y1="23.914" x2="25.776" y2="42.164" gradientUnits="userSpaceOnUse"><stop stop-color="#8888D3"/><stop offset="1" stop-color="#5E60A3"/></linearGradient><linearGradient id="paint5_linear" x1="50.663" y1="26.817" x2="50.663" y2="60" gradientUnits="userSpaceOnUse"><stop stop-color="#8888D3"/><stop offset="1" stop-color="#5E60A3"/></linearGradient><linearGradient id="paint6_linear" x1="11.258" y1="23.855" x2="11.258" y2="42.222" gradientUnits="userSpaceOnUse"><stop stop-color="#8888D3"/><stop offset="1" stop-color="#5E60A3"/></linearGradient><linearGradient id="paint7_linear" x1="25.776" y1="28.373" x2="25.776" y2="37.705" gradientUnits="userSpaceOnUse"><stop stop-color="#8888D3"/><stop offset="1" stop-color="#5E60A3"/></linearGradient></defs></svg>
